X: 201565
T: Templeglantine Reel (B)
T: Teampall an Ghleannt\'ain
S: B.Breathnach: "Ceol Rince na hEireann" II/280
Z: B.Black
L: 1/8
M: 4/4
R: reel
K: Dmix
(3ABc||dcAG F2 F2|AG F2 EF F2|dcAG EF F2|A2 GE FD D2|
dcAG F2 F2|AG F2 EF F2|AG G2 EF F2|A2 GE FD D2 ||
DFAB cBcA|dcde fged|dcAG EFGB|A2 GE FD D2 :|
